material/.icons/material/pot.svg

<svg xmlns="http://www.w3.org/2000/svg" viewBox="0 0 24 24"><path d="M19 19c0 1.1-.9 2-2 2H7c-1.1 0-2-.9-2-2v-7H3v-2h18v2h-2v7z"/></svg>

<?xml version="1.0" encoding="UTF-8"?><!DOCTYPE svg PUBLIC "-//W3C//DTD SVG 1.1//EN" "http://www.w3.org/Graphics/SVG/1.1/DTD/svg11.dtd"><svg xmlns="http://www.w3.org/2000/svg" xmlns:xlink="http://www.w3.org/1999/xlink" version="1.1" id="mdi-pot" width="24" height="24" viewBox="0 0 24 24"><path d="M19 19C19 20.1 18.1 21 17 21H7C5.9 21 5 20.1 5 19V12H3V10H21V12H19V19Z" /></svg>
